X: 1309
T: An Leanbh Si
R: barndance
M: 4/4
K: Dmajor
d|f>A A4 B2|d>f ba3 b<a|f3d e>f B2|A4 A2 d2|
f>A A2 B2 d<f|ba3 b<a f2|f>d e3f d2|d4 z2 a<f|
b4 a3 f/d/|f2 e4 a<f|b4 a3 f/d/|e4 e2 d2|
f>A A4 B2|d>f ba3 b<a|f3d e>f d2|d4 d4||

